svg/emoji_u2714.svg

<svg width="128" height="128" viewBox="0 0 128 128" fill="none" xmlns="http://www.w3.org/2000/svg">
<path d="M36.0198 123.97C35.3198 123.95 34.6098 123.89 33.9198 123.77C29.5898 123 26.0298 119.93 24.6198 115.77L4.61983 55.7702C2.51983 49.4702 5.91983 42.6702 12.2198 40.5702C18.5198 38.4702 25.3198 41.8702 27.4198 48.1702L40.4198 87.1702L102.62 8.57016C106.73 3.35016 114.3 2.46016 119.52 6.57016C124.74 10.6802 125.63 18.2502 121.52 23.4702L45.5198 119.47C43.1798 122.31 39.6998 123.96 36.0198 123.97Z" fill="#616266" style="fill:#616266;fill:color(display-p3 0.3804 0.3843 0.4000);fill-opacity:1;"/>
<path opacity="0.35" d="M75.1699 58.9101C76.6599 57.6701 105.14 23.6901 105.14 23.6901C105.14 23.6901 107.52 21.1601 105.5 18.9401C103.6 16.9101 101.12 18.2401 99.9299 19.5601C98.7399 20.8801 73.0399 51.1801 71.9799 52.6801C70.9399 54.3701 70.9099 56.4901 71.8899 58.2101C72.8299 59.7301 74.1399 59.8101 75.1699 58.9101Z" fill="white" style="fill:white;fill-opacity:1;"/>
<path opacity="0.35" d="M108.45 16.1298C110.272 16.1298 111.75 14.6523 111.75 12.8298C111.75 11.0072 110.272 9.52979 108.45 9.52979C106.627 9.52979 105.15 11.0072 105.15 12.8298C105.15 14.6523 106.627 16.1298 108.45 16.1298Z" fill="white" style="fill:white;fill-opacity:1;"/>
<path opacity="0.35" d="M12.7301 65.49C13.4001 65.48 13.2601 61.73 15.0101 58.14C16.2401 55.6 17.8301 54.32 17.8201 52.9C17.8101 51.48 15.9001 44.56 14.4701 45.02C12.4801 45.65 9.9401 48.21 9.3701 52.2C8.4801 58.48 11.5001 65.51 12.7301 65.49Z" fill="white" style="fill:white;fill-opacity:1;"/>
</svg>

<?xml version="1.0" encoding="utf-8"?>
<!-- Generator: Adobe Illustrator 25.2.3, SVG Export Plug-In . SVG Version: 6.00 Build 0)  -->
<svg version="1.1" id="Layer_1" xmlns="http://www.w3.org/2000/svg" xmlns:xlink="http://www.w3.org/1999/xlink" x="0px" y="0px"
	 viewBox="0 0 128 128" style="enable-background:new 0 0 128 128;" xml:space="preserve">
<path style="fill:#546D7A;" d="M36.02,123.97c-0.7-0.02-1.41-0.08-2.1-0.2c-4.33-0.77-7.89-3.84-9.3-8l-20-60
	c-2.1-6.3,1.3-13.1,7.6-15.2c6.3-2.1,13.1,1.3,15.2,7.6l13,39l62.2-78.6c4.11-5.22,11.68-6.11,16.9-2s6.11,11.68,2,16.9l-76,96
	C43.18,122.31,39.7,123.96,36.02,123.97z"/>
<path style="opacity:0.35;fill:#FFFFFF;" d="M75.17,58.91c1.49-1.24,29.97-35.22,29.97-35.22s2.38-2.53,0.36-4.75
	c-1.9-2.03-4.38-0.7-5.57,0.62S73.04,51.18,71.98,52.68c-1.04,1.69-1.07,3.81-0.09,5.53C72.83,59.73,74.14,59.81,75.17,58.91z"/>
<circle style="opacity:0.35;fill:#FFFFFF;" cx="108.45" cy="12.83" r="3.3"/>
<path style="opacity:0.35;fill:#FFFFFF;" d="M12.73,65.49c0.67-0.01,0.53-3.76,2.28-7.35c1.23-2.54,2.82-3.82,2.81-5.24
	s-1.92-8.34-3.35-7.88c-1.99,0.63-4.53,3.19-5.1,7.18C8.48,58.48,11.5,65.51,12.73,65.49z"/>
</svg>
